packages/foundations/assets/icons/functional/images/audio & video/volume_down.svg

<svg xmlns="http://www.w3.org/2000/svg" width="32" height="32" fill="none"><path fill="#1A1C1F" fill-rule="evenodd" d="M17.24 6.12c-.094.051-1.456 1.161-3.026 2.467L11.36 10.96l-2.093.031c-1.81.026-2.133.043-2.387.126-1.074.349-1.839 1.144-2.106 2.188-.115.453-.118 5.082-.003 5.515.276 1.036 1.195 1.882 2.296 2.113.287.061.819.079 2.32.081l1.946.002 2.943 2.447c1.619 1.346 2.999 2.466 3.067 2.488.202.066.6.041.773-.049.263-.136.481-.426.545-.727.083-.386.083-17.964 0-18.35-.067-.314-.302-.617-.565-.726-.24-.101-.651-.09-.856.021m-.547 9.881v6.882l-2.253-1.884c-1.239-1.036-2.301-1.906-2.36-1.934-.059-.027-1.151-.062-2.427-.077-1.621-.02-2.352-.047-2.426-.09a1.6 1.6 0 0 1-.447-.481c-.042-.081-.06-.821-.06-2.416 0-1.876.014-2.326.075-2.444.101-.193.345-.417.528-.487.097-.037.91-.057 2.294-.057 1.363 0 2.218-.021 2.349-.058.152-.042.807-.561 2.454-1.942a405 405 0 0 1 2.26-1.889c.007-.002.013 3.093.013 6.877m5.909-6.615c-.435.131-.711.562-.67 1.046.014.174.066.351.129.437.058.079.356.312.662.517 1.591 1.065 2.426 2.377 2.612 4.101.141 1.309-.252 2.75-1.022 3.749-.334.432-1.047 1.086-1.504 1.378-.762.486-.889.643-.889 1.093 0 .769.775 1.194 1.485.813.874-.469 1.988-1.457 2.581-2.288.824-1.156 1.251-2.443 1.306-3.939.093-2.523-1.003-4.736-3.083-6.227-.561-.402-1.178-.735-1.349-.728a1.2 1.2 0 0 0-.258.048m-1.361 3.791a1.2 1.2 0 0 0-.381.251c-.257.246-.344.521-.27.854.072.32.126.412.455.776.363.403.466.625.462 1-.003.366-.101.566-.467.954-.32.338-.403.479-.457.768-.078.426.169.877.579 1.059.762.337 1.702-.414 2.122-1.696.138-.422.156-.55.154-1.116-.002-.736-.077-1.049-.408-1.689-.453-.879-1.176-1.348-1.789-1.161"/></svg>

<svg width="32" height="32" viewBox="0 0 32 32" fill="none" xmlns="http://www.w3.org/2000/svg"><path d="M17.240 6.120 C 17.146 6.171,15.784 7.281,14.214 8.587 L 11.360 10.960 9.267 10.991 C 7.457 11.017,7.134 11.034,6.880 11.117 C 5.806 11.466,5.041 12.261,4.774 13.305 C 4.659 13.758,4.656 18.387,4.771 18.820 C 5.047 19.856,5.966 20.702,7.067 20.933 C 7.354 20.994,7.886 21.012,9.387 21.014 L 11.333 21.016 14.276 23.463 C 15.895 24.809,17.275 25.929,17.343 25.951 C 17.545 26.017,17.943 25.992,18.116 25.902 C 18.379 25.766,18.597 25.476,18.661 25.175 C 18.744 24.789,18.744 7.211,18.661 6.825 C 18.594 6.511,18.359 6.208,18.096 6.099 C 17.856 5.998,17.445 6.009,17.240 6.120 M16.693 16.001 L 16.693 22.883 14.440 20.999 C 13.201 19.963,12.139 19.093,12.080 19.065 C 12.021 19.038,10.929 19.003,9.653 18.988 C 8.032 18.968,7.301 18.941,7.227 18.898 C 7.091 18.819,6.857 18.568,6.780 18.417 C 6.738 18.336,6.720 17.596,6.720 16.001 C 6.720 14.125,6.734 13.675,6.795 13.557 C 6.896 13.364,7.140 13.140,7.323 13.070 C 7.420 13.033,8.233 13.013,9.617 13.013 C 10.980 13.013,11.835 12.992,11.966 12.955 C 12.118 12.913,12.773 12.394,14.420 11.013 C 15.656 9.976,16.673 9.126,16.680 9.124 C 16.687 9.122,16.693 12.217,16.693 16.001 M22.602 9.386 C 22.167 9.517,21.891 9.948,21.932 10.432 C 21.946 10.606,21.998 10.783,22.061 10.869 C 22.119 10.948,22.417 11.181,22.723 11.386 C 24.314 12.451,25.149 13.763,25.335 15.487 C 25.476 16.796,25.083 18.237,24.313 19.236 C 23.979 19.668,23.266 20.322,22.809 20.614 C 22.047 21.100,21.920 21.257,21.920 21.707 C 21.920 22.476,22.695 22.901,23.405 22.520 C 24.279 22.051,25.393 21.063,25.986 20.232 C 26.810 19.076,27.237 17.789,27.292 16.293 C 27.385 13.770,26.289 11.557,24.209 10.066 C 23.648 9.664,23.031 9.331,22.860 9.338 C 22.797 9.340,22.682 9.362,22.602 9.386 M21.241 13.177 C 21.146 13.206,20.975 13.319,20.860 13.428 C 20.603 13.674,20.516 13.949,20.590 14.282 C 20.662 14.602,20.716 14.694,21.045 15.058 C 21.408 15.461,21.511 15.683,21.507 16.058 C 21.504 16.424,21.406 16.624,21.040 17.012 C 20.720 17.350,20.637 17.491,20.583 17.780 C 20.505 18.206,20.752 18.657,21.162 18.839 C 21.924 19.176,22.864 18.425,23.284 17.143 C 23.422 16.721,23.440 16.593,23.438 16.027 C 23.436 15.291,23.361 14.978,23.030 14.338 C 22.577 13.459,21.854 12.990,21.241 13.177 " fill="#1A1C1F" stroke="none" fill-rule="evenodd"></path></svg>
